X: 107
T:Monferrina
M:6/8
L:1/8
S:La Ciapa Rusa
R:Jig
Z:Steve Mansfield
K:G
d |: B2d A2d | G2G GFG | A2A AGA | B2G G2d | B2d A2d | G2G GFG |
A2A AGF |1 G3 G2d :|2 G3GFG |: A2A AGA | B2G gfe | ded cBA |
B2G GFG | A2A AGA | B2G gfe | ded cBA |1 G3 GFG :|2 G3G2 ||
<end>
<start>
